web/resources/phyre-customer-svg/email-routing.svg

<!DOCTYPE svg PUBLIC "-//W3C//DTD SVG 1.1//EN" "http://www.w3.org/Graphics/SVG/1.1/DTD/svg11.dtd">
<!-- Uploaded to: SVG Repo, www.svgrepo.com, Transformed by: SVG Repo Mixer Tools -->
<svg width="800px" height="800px" viewBox="-2.88 -2.88 29.76 29.76" fill="none" xmlns="http://www.w3.org/2000/svg">
<g id="SVGRepo_bgCarrier" stroke-width="0">
<rect x="-2.88" y="-2.88" width="29.76" height="29.76" rx="14.88" fill="#87c996" strokewidth="0"/>
</g>
<g id="SVGRepo_tracerCarrier" stroke-linecap="round" stroke-linejoin="round"/>
<g id="SVGRepo_iconCarrier"> <g opacity="0.5"> <path fill-rule="evenodd" clip-rule="evenodd" d="M18.5 14C16.567 14 15 15.4584 15 17.2573C15 19.0422 16.1171 21.125 17.86 21.8698C18.2663 22.0434 18.7337 22.0434 19.14 21.8698C20.8829 21.125 22 19.0422 22 17.2573C22 15.4584 20.433 14 18.5 14Z" fill="#ffffff"/> <path fill-rule="evenodd" clip-rule="evenodd" d="M5.5 2C3.567 2 2 3.45835 2 5.25732C2 7.04219 3.11708 9.12497 4.85997 9.86978C5.26626 10.0434 5.73374 10.0434 6.14003 9.86978C7.88292 9.12497 9 7.04219 9 5.25732C9 3.45835 7.433 2 5.5 2Z" fill="#ffffff"/> </g> <path d="M19.5 17.5C19.5 18.0523 19.0523 18.5 18.5 18.5C17.9477 18.5 17.5 18.0523 17.5 17.5C17.5 16.9477 17.9477 16.5 18.5 16.5C19.0523 16.5 19.5 16.9477 19.5 17.5Z" fill="#ffffff"/> <path d="M6.5 5.5C6.5 6.05228 6.05228 6.5 5.5 6.5C4.94772 6.5 4.5 6.05228 4.5 5.5C4.5 4.94772 4.94772 4.5 5.5 4.5C6.05228 4.5 6.5 4.94772 6.5 5.5Z" fill="#ffffff"/> <path fill-rule="evenodd" clip-rule="evenodd" d="M11.2501 5C11.2501 4.58579 11.5859 4.25 12.0001 4.25H16.132C18.8832 4.25 19.9295 7.843 17.6084 9.32007L7.19713 15.9454C6.14207 16.6168 6.61766 18.25 7.86821 18.25H10.1894L9.96977 18.0303C9.67688 17.7374 9.67688 17.2626 9.96977 16.9697C10.2627 16.6768 10.7375 16.6768 11.0304 16.9697L12.5304 18.4697C12.8233 18.7626 12.8233 19.2374 12.5304 19.5303L11.0304 21.0303C10.7375 21.3232 10.2627 21.3232 9.96977 21.0303C9.67688 20.7374 9.67688 20.2626 9.96977 19.9697L10.1894 19.75H7.86821C5.11697 19.75 4.07071 16.157 6.39181 14.6799L16.8031 8.05458C17.8581 7.38318 17.3825 5.75 16.132 5.75H12.0001C11.5859 5.75 11.2501 5.41421 11.2501 5Z" fill="#ffffff"/> </g>
</svg>

<svg xmlns="http://www.w3.org/2000/svg" width="16" height="16" viewBox="0 0 24 24">
	<path fill="#fff" fill-rule="evenodd" d="M18.5 14c-1.933 0-3.5 1.458-3.5 3.257c0 1.785 1.117 3.868 2.86 4.613c.406.173.874.173 1.28 0c1.743-.745 2.86-2.828 2.86-4.613C22 15.458 20.433 14 18.5 14m0 4.5a1 1 0 1 0 0-2a1 1 0 0 0 0 2M5.5 2C3.567 2 2 3.458 2 5.257C2 7.042 3.117 9.125 4.86 9.87c.406.173.874.173 1.28 0C7.883 9.125 9 7.042 9 5.257C9 3.458 7.433 2 5.5 2m0 4.5a1 1 0 1 0 0-2a1 1 0 0 0 0 2M11.25 5a.75.75 0 0 1 .75-.75h4.132c2.751 0 3.797 3.593 1.476 5.07l-10.41 6.625c-1.056.672-.58 2.305.67 2.305h2.321l-.22-.22a.75.75 0 1 1 1.061-1.06l1.5 1.5a.75.75 0 0 1 0 1.06l-1.5 1.5a.75.75 0 1 1-1.06-1.06l.22-.22H7.867c-2.751 0-3.797-3.593-1.476-5.07l10.411-6.625c1.055-.672.58-2.305-.671-2.305H12a.75.75 0 0 1-.75-.75" clip-rule="evenodd" />
</svg>
